symbols/web/near_me_disabled/materialsymbolsrounded/near_me_disabled_wght100gradN25fill1_48px.svg

<svg xmlns="http://www.w3.org/2000/svg" height="48" width="48"><path d="M21.95 25.95 11.8 21.8q-.3-.05-.45-.325-.15-.275-.15-.575 0-.3.1-.525.1-.225.5-.375l8.95-3.4L9.65 5.45q-.1-.1-.125-.35-.025-.25.175-.4.1-.15.35-.15.25 0 .4.15l32.9 32.85q.05.1.075.375.025.275-.075.425-.2.15-.45.15t-.4-.15L31.25 27.1l-3.45 9q-.15.35-.375.475t-.475.125q-.4 0-.675-.175T25.9 36.1Zm11.2-3.75-7.5-7.45L35.8 10.8q.3-.15.575-.05.275.1.475.3.2.2.275.475.075.275-.075.575Z"/></svg>

<svg xmlns="http://www.w3.org/2000/svg" height="48" width="48"><path d="M21.95 25.95 11.8 21.8Q11.5 21.75 11.35 21.475Q11.2 21.2 11.2 20.9Q11.2 20.6 11.3 20.375Q11.4 20.15 11.8 20L20.75 16.6L9.65 5.45Q9.55 5.35 9.525 5.1Q9.5 4.85 9.7 4.7Q9.8 4.55 10.05 4.55Q10.3 4.55 10.45 4.7L43.35 37.55Q43.4 37.65 43.425 37.925Q43.45 38.2 43.35 38.35Q43.15 38.5 42.9 38.5Q42.65 38.5 42.5 38.35L31.25 27.1L27.8 36.1Q27.65 36.45 27.425 36.575Q27.2 36.7 26.95 36.7Q26.55 36.7 26.275 36.525Q26 36.35 25.9 36.1ZM33.15 22.2 25.65 14.75 35.8 10.8Q36.1 10.65 36.375 10.75Q36.65 10.85 36.85 11.05Q37.05 11.25 37.125 11.525Q37.2 11.8 37.05 12.1Z"/></svg>
